X: 30955
T: Ownie Davis'
R: reel
M: 4/4
K: Dmixolydian
D3d cAAB|~c2de cAGE|D3d cAAB|cAGE EDAD|
(3EFG AB cAAB|~c2de cAGe|fded dcAB|1 cAGE EDD^C:|2 cAGE EDDG||
|:Adde ~f3g|afge dcAG|Adde fded|cAGE EDDG|
Adde ~f3g|afge defg|afge fded|1 cAGE EDDG:|2 cAGE EDD^C||

